img/linkedIn-icon.svg

<svg width="50" height="50" viewBox="0 0 50 50" fill="none" xmlns="http://www.w3.org/2000/svg">
<path d="M25 0C11.1914 0 0 11.1914 0 25C0 38.8086 11.1914 50 25 50C38.8086 50 50 38.8086 50 25C50 11.1914 38.8086 0 25 0ZM17.7344 37.793H11.6504V19.4727H17.7344V37.793ZM14.6875 16.9727H14.6484C12.6074 16.9727 11.2793 15.5664 11.2793 13.8086C11.2793 12.0117 12.6367 10.6445 14.7266 10.6445C16.8164 10.6445 18.0957 12.0117 18.1348 13.8086C18.1348 15.5664 16.8164 16.9727 14.6875 16.9727ZM39.6875 37.793H33.6035V27.998C33.6035 25.5371 32.7246 23.8574 30.5176 23.8574C28.8379 23.8574 27.832 24.9902 27.3926 26.084C27.2363 26.4746 27.1875 27.0215 27.1875 27.5684V37.793H21.1035C21.1035 37.793 21.1816 21.1914 21.1035 19.4727H27.1875V22.0703C27.998 20.8203 29.4434 19.043 32.6758 19.043C36.6797 19.043 39.6875 21.6602 39.6875 27.2852V37.793Z" fill="#D87D63"/>
</svg>

<?xml version="1.0" encoding="utf-8"?>
<!-- Generator: Adobe Illustrator 27.1.1, SVG Export Plug-In . SVG Version: 6.00 Build 0)  -->
<svg version="1.1" id="Layer_1" xmlns="http://www.w3.org/2000/svg" xmlns:xlink="http://www.w3.org/1999/xlink" x="0px" y="0px"
	 viewBox="0 0 50 50" style="enable-background:new 0 0 50 50;" xml:space="preserve">
<style type="text/css">
	.st0{fill:#D87D63;}
</style>
<path class="st0" d="M25,0C11.2,0,0,11.2,0,25s11.2,25,25,25s25-11.2,25-25S38.8,0,25,0z M17.7,37.8h-6.1V19.5h6.1V37.8z M14.7,17
	L14.7,17c-2.1,0-3.4-1.4-3.4-3.2c0-1.8,1.4-3.2,3.4-3.2c2.1,0,3.4,1.4,3.4,3.2C18.1,15.6,16.8,17,14.7,17z M39.7,37.8h-6.1V28
	c0-2.5-0.9-4.1-3.1-4.1c-1.7,0-2.7,1.1-3.1,2.2c-0.2,0.4-0.2,0.9-0.2,1.5v10.2h-6.1c0,0,0.1-16.6,0-18.3h6.1v2.6
	c0.8-1.2,2.2-3,5.5-3c4,0,7,2.6,7,8.2V37.8z"/>
</svg>
